resources/svg/major-minimize.svg

<svg xmlns="http://www.w3.org/2000/svg" viewBox="0 0 20 20" fill="currentColor"><path d="M9 17h8v-14h-14v8h-2v-8.5a1.5 1.5 0 0 1 1.5-1.5h15a1.5 1.5 0 0 1 1.5 1.5v15a1.5 1.5 0 0 1-1.5 1.5h-8.5v-2z"/><path d="M10 6a1 1 0 1 0-2 0v5a.997.997 0 0 0 1 1h5a1 1 0 1 0 0-2h-2.586l3.293-3.293a1 1 0 0 0-1.414-1.414l-3.293 3.293v-2.586zm-9 8.5a1.5 1.5 0 0 1 1.5-1.5h3a1.5 1.5 0 0 1 1.5 1.5v3a1.5 1.5 0 0 1-1.5 1.5h-3a1.5 1.5 0 0 1-1.5-1.5v-3z"/></svg>

<svg xmlns="http://www.w3.org/2000/svg" viewBox="0 0 20 20" fill="currentColor"><path d="M9 17h8V3H3v8H1V2.5A1.5 1.5 0 0 1 2.5 1h15A1.5 1.5 0 0 1 19 2.5v15a1.5 1.5 0 0 1-1.5 1.5H9v-2z"/><path d="M10 6a1 1 0 1 0-2 0v5a.997.997 0 0 0 1 1h5a1 1 0 1 0 0-2h-2.586l3.293-3.293a1 1 0 0 0-1.414-1.414L10 8.586V6zm-9 8.5A1.5 1.5 0 0 1 2.5 13h3A1.5 1.5 0 0 1 7 14.5v3A1.5 1.5 0 0 1 5.5 19h-3A1.5 1.5 0 0 1 1 17.5v-3z"/></svg>
